X: 343
Q: "Slowish"
M: 6/8
L: 1/8
K: Gm
V: 1
|: d |\
g2a b2g | f2d f2d | B>cB f2e/d/ | ~c>dB AG^F |\
V: 2 clef=bass middle=d
z |\
zBd g2a | b2g bd'b | d2b a2b | a2g d'2d |\
g2g g2a | b2^f g2a | bd'b d'2d | gdB G2 :|
|: z |\
g2z g2z | a2b bd'b | d2b a2b | a2g d'2d |\
g2z b2a | g2^f g2a | bd'^c' d'2d | gdB G2 :|


